svg/filled/node-1-connection.svg

<svg width="24" height="24" viewBox="0 0 24 24" fill="none" xmlns="http://www.w3.org/2000/svg">
<path d="M12.5393 7.1653C13.0395 7.00341 13.4411 6.62246 13.631 6.13559L17.8644 10.369C17.3775 10.5589 16.9965 10.9605 16.8347 11.4606L12.5393 7.1653Z" fill="black"/>
<path d="M16.8347 12.5394L12.5394 16.8347C13.0395 16.9966 13.4411 17.3776 13.631 17.8644L17.8644 13.631C17.3775 13.4411 16.9965 13.0396 16.8347 12.5394Z" fill="black"/>
<path d="M11.4607 16.8347L7.16529 12.5393C7.00344 13.0394 6.62252 13.4411 6.13567 13.631L10.369 17.8643C10.5589 17.3774 10.9605 16.9965 11.4607 16.8347Z" fill="black"/>
<path d="M11.4607 7.16535L7.16529 11.4608C7.00344 10.9606 6.62252 10.559 6.13567 10.3691L10.369 6.13572C10.5589 6.62258 10.9605 7.0035 11.4607 7.16535Z" fill="black"/>
<path fill-rule="evenodd" clip-rule="evenodd" d="M12 4.5C11.4477 4.5 11 4.94772 11 5.5C11 6.05228 11.4477 6.5 12 6.5C12.5523 6.5 13 6.05228 13 5.5C13 4.94772 12.5523 4.5 12 4.5ZM9.5 5.5C9.5 4.11929 10.6193 3 12 3C13.3807 3 14.5 4.11929 14.5 5.5C14.5 6.88071 13.3807 8 12 8C10.6193 8 9.5 6.88071 9.5 5.5Z" fill="black"/>
<path fill-rule="evenodd" clip-rule="evenodd" d="M12 17.5C11.4477 17.5 11 17.9477 11 18.5C11 19.0523 11.4477 19.5 12 19.5C12.5523 19.5 13 19.0523 13 18.5C13 17.9477 12.5523 17.5 12 17.5ZM9.5 18.5C9.5 17.1193 10.6193 16 12 16C13.3807 16 14.5 17.1193 14.5 18.5C14.5 19.8807 13.3807 21 12 21C10.6193 21 9.5 19.8807 9.5 18.5Z" fill="black"/>
<circle cx="5.5" cy="12" r="2.5" fill="black"/>
<path fill-rule="evenodd" clip-rule="evenodd" d="M18.5 11C17.9477 11 17.5 11.4477 17.5 12C17.5 12.5523 17.9477 13 18.5 13C19.0523 13 19.5 12.5523 19.5 12C19.5 11.4477 19.0523 11 18.5 11ZM16 12C16 10.6193 17.1193 9.5 18.5 9.5C19.8807 9.5 21 10.6193 21 12C21 13.3807 19.8807 14.5 18.5 14.5C17.1193 14.5 16 13.3807 16 12Z" fill="black"/>
</svg>

<svg xmlns="http://www.w3.org/2000/svg" viewBox="0 0 24 24" fill="currentColor">
  <path d="M12.54 7.165c.5-.162.901-.543 1.091-1.03l4.233 4.234c-.486.19-.867.591-1.03 1.092L12.54 7.165zM16.835 12.54l-4.296 4.295c.5.162.902.543 1.092 1.03l4.233-4.234a1.755 1.755 0 01-1.03-1.092zM11.46 16.835l-4.295-4.296c-.162.5-.542.902-1.03 1.092l4.234 4.233c.19-.487.591-.867 1.092-1.03zM11.46 7.165l-4.295 4.296a1.755 1.755 0 00-1.03-1.092l4.234-4.233c.19.487.591.867 1.092 1.03z"/>
  <path fill-rule="evenodd" d="M12 4.5a1 1 0 100 2 1 1 0 000-2zm-2.5 1a2.5 2.5 0 115 0 2.5 2.5 0 01-5 0zM12 17.5a1 1 0 100 2 1 1 0 000-2zm-2.5 1a2.5 2.5 0 115 0 2.5 2.5 0 01-5 0z" clip-rule="evenodd"/>
  <circle cx="5.5" cy="12" r="2.5"/>
  <path fill-rule="evenodd" d="M18.5 11a1 1 0 100 2 1 1 0 000-2zM16 12a2.5 2.5 0 115 0 2.5 2.5 0 01-5 0z" clip-rule="evenodd"/>
</svg>
